www/assets/icons/park.svg

<svg width="24" height="24" viewBox="0 0 24 24" xmlns="http://www.w3.org/2000/svg" fill='currentColor'><path d="M16.95 12H18.95L11.95 2L4.99999 12H6.94999L3.04999 18H9.96999V22H13.93V18H20.95L16.95 12Z"/></svg>

<svg xmlns="http://www.w3.org/2000/svg" width="24" height="24" viewBox="0 0 24 24" fill='currentColor'><path d="M16.95 12h2l-7-10L5 12h1.95l-3.9 6h6.92v4h3.96v-4h7.02z"/></svg>
